X: 1073
T: A New Scotch Horn-pipe.
%R: hornpipe, reel
B: Henry Playford "Apollo's Banquet", London 1687 (5th Edition)
F: https://archive.org/details/apollosbanquetco01rugg
Z: 2017 John Chambers <jc:trillian.mit.edu>
N: "a Scotish measure." penciled in above tune.
M: C|
L: 1/8
K: F	% and Dm
% - - - - - - - - - -
c |\
A3c (Ac)(AF) | F2 c4 (BA) | (GF)(GA) (cG)(AF) | D2 d4 (de) | (ef)(ag) (ag)(fd) | (fd)(cB) f3F |
(GF)(GA) (cG)(AF) | D2d2- d3 :: c | (AG)(Ac) (Ac)(AG) | (FG)(AB) c2(BA) | (GF)(GA) (cG)(AF) | D2 d4 (af) |
(fF)(fg) (ag)(fd) | (cA)(cd) f3 F |(FG)(AB) (cA)(GF) | D2d2- d3 :: c | (AG)(Ac) (Ac)(AG) | F2 f4 (ef) |
(gf)(ga) (ga)(af) | (dc)(df) (ga)(ge) | (fF)(fg) (af)(gd) | (fc)(dA) (fg)(fF) | (GF)(GA) (cG)(AF) | D2d2- d3 |]
% - - - - - - - - - -

%%sep 1 1 500
%%sep 1 1 500

